storage/app/icons/phosphoricons/duotone/columns-plus-left-duotone.svg

<svg xmlns="http://www.w3.org/2000/svg" fill="currentColor" viewBox="0 0 256 256"><path d="M136 48v160a8 8 0 0 1-8 8h-24a8 8 0 0 1-8-8V48a8 8 0 0 1 8-8h24a8 8 0 0 1 8 8m64-8h-24a8 8 0 0 0-8 8v160a8 8 0 0 0 8 8h24a8 8 0 0 0 8-8V48a8 8 0 0 0-8-8" opacity=".2"/><path d="M128 32h-24a16 16 0 0 0-16 16v160a16 16 0 0 0 16 16h24a16 16 0 0 0 16-16V48a16 16 0 0 0-16-16m0 176h-24V48h24Zm72-176h-24a16 16 0 0 0-16 16v160a16 16 0 0 0 16 16h24a16 16 0 0 0 16-16V48a16 16 0 0 0-16-16m0 176h-24V48h24ZM72 128a8 8 0 0 1-8 8H48v16a8 8 0 0 1-16 0v-16H16a8 8 0 0 1 0-16h16v-16a8 8 0 0 1 16 0v16h16a8 8 0 0 1 8 8"/></svg>

<svg xmlns="http://www.w3.org/2000/svg" viewBox="0 0 256 256" fill="currentColor"><path d="M136,48V208a8,8,0,0,1-8,8H104a8,8,0,0,1-8-8V48a8,8,0,0,1,8-8h24A8,8,0,0,1,136,48Zm64-8H176a8,8,0,0,0-8,8V208a8,8,0,0,0,8,8h24a8,8,0,0,0,8-8V48A8,8,0,0,0,200,40Z" opacity="0.2"/><path d="M128,32H104A16,16,0,0,0,88,48V208a16,16,0,0,0,16,16h24a16,16,0,0,0,16-16V48A16,16,0,0,0,128,32Zm0,176H104V48h24ZM200,32H176a16,16,0,0,0-16,16V208a16,16,0,0,0,16,16h24a16,16,0,0,0,16-16V48A16,16,0,0,0,200,32Zm0,176H176V48h24ZM72,128a8,8,0,0,1-8,8H48v16a8,8,0,0,1-16,0V136H16a8,8,0,0,1,0-16H32V104a8,8,0,0,1,16,0v16H64A8,8,0,0,1,72,128Z"/></svg>
